packages/vibrant-icons/assets/icons/KeyboardArrowDown/Fill.svg

<svg width="24" height="24" viewBox="0 0 24 24" fill="none" xmlns="http://www.w3.org/2000/svg">
<path fill-rule="evenodd" clip-rule="evenodd" d="M1.1499 3.40088C1.01183 3.40088 0.899902 3.51281 0.899902 3.65088V20.349C0.899902 20.4871 1.01183 20.599 1.1499 20.599H15.25V14.5H23.0999V3.65088C23.0999 3.51281 22.988 3.40088 22.8499 3.40088H1.1499ZM4.625 7.5H6.375V9.25H4.625V7.5ZM6.375 11.25H4.625V13H6.375V11.25ZM4.625 15H6.375V16.75H4.625V15ZM9.625 7.5H7.875V9.25H9.625V7.5ZM7.875 11.25H9.625V13H7.875V11.25ZM13.8 15H7.875V16.75H13.8V15ZM11.125 7.5H12.875V9.25H11.125V7.5ZM12.875 11.25H11.125V13H12.875V11.25ZM14.375 7.5H16.125V9.25H14.375V7.5ZM16.125 11.25H14.375V13H16.125V11.25ZM17.625 7.5H19.375V9.25H17.625V7.5ZM19.375 11.25H17.625V13H19.375V11.25Z" fill="#0C0C0C"/>
<path d="M19.1502 20.25V15.5H20.8502V20.25L22.7119 18.3421L23.7884 19.6579L20.0002 22.8483L16.2119 19.6579L17.2884 18.3421L19.1502 20.25Z" fill="#0C0C0C"/>
</svg>

<svg xmlns="http://www.w3.org/2000/svg" width="24" height="24" fill="none"><path fill="#0C0C0C" fill-rule="evenodd" d="M1.15 3.4a.25.25 0 0 0-.25.25v16.7c0 .138.112.25.25.25h14.1v-6.1h7.85V3.65a.25.25 0 0 0-.25-.25zm3.475 4.1h1.75v1.75h-1.75zm1.75 3.75h-1.75V13h1.75zM4.625 15h1.75v1.75h-1.75zm5-7.5h-1.75v1.75h1.75zm-1.75 3.75h1.75V13h-1.75zM13.8 15H7.875v1.75H13.8zm-2.675-7.5h1.75v1.75h-1.75zm1.75 3.75h-1.75V13h1.75zm1.5-3.75h1.75v1.75h-1.75zm1.75 3.75h-1.75V13h1.75zm1.5-3.75h1.75v1.75h-1.75zm1.75 3.75h-1.75V13h1.75z" clip-rule="evenodd"/><path fill="#0C0C0C" d="M19.15 20.25V15.5h1.7v4.75l1.862-1.908 1.076 1.316L20 22.848l-3.788-3.19 1.076-1.316z"/></svg>
